X:175
T:score254
L:1/16
Q:1/4=96
M:2/4
I:linebreak $
K:A
!mf! ed | cdBc AcBA | GABG E2FG | A2Bc d2c2 | (c4 B2)!p!ed |$ cdBc AcBA | GABG E2FG | A2A2 BABc | %8
 (B4 A2) z2 |] %9
